img/svg/medium.svg

<svg width="24" height="24" viewBox="0 0 24 24"  xmlns="http://www.w3.org/2000/svg">
<path d="M24 11.8276C24 15.0069 23.4672 17.5858 22.8097 17.5858C22.1522 17.5858 21.6196 15.0076 21.6196 11.8276C21.6196 8.64758 22.1525 6.06934 22.8097 6.06934C23.467 6.06934 24 8.64735 24 11.8276Z" />
<path d="M20.9627 11.8277C20.9627 15.377 19.4474 18.2554 17.5783 18.2554C15.7091 18.2554 14.1938 15.377 14.1938 11.8277C14.1938 8.27834 15.7089 5.3999 17.578 5.3999C19.4472 5.3999 20.9625 8.27742 20.9625 11.8277" />
<path d="M13.5374 11.8277C13.5374 15.5984 10.5069 18.6552 6.76884 18.6552C3.03073 18.6552 0 15.5977 0 11.8277C0 8.05767 3.0305 5 6.76884 5C10.5072 5 13.5374 8.05698 13.5374 11.8277Z" />
</svg>

<svg width="24" height="24" viewBox="0 0 24 24" xmlns="http://www.w3.org/2000/svg"><path d="M24 11.828c0 3.179-.533 5.758-1.19 5.758-.658 0-1.19-2.578-1.19-5.758s.532-5.759 1.19-5.759c.657 0 1.19 2.578 1.19 5.759zm-3.037 0c0 3.549-1.516 6.427-3.385 6.427-1.869 0-3.384-2.878-3.384-6.427 0-3.55 1.515-6.428 3.384-6.428 1.87 0 3.384 2.877 3.384 6.428m-7.425 0c0 3.77-3.03 6.827-6.768 6.827S0 15.598 0 11.828 3.03 5 6.769 5c3.738 0 6.768 3.057 6.768 6.828z"/></svg>
